packages/foundations/assets/icons/functional/images/file/folder_open.svg

<svg xmlns="http://www.w3.org/2000/svg" width="32" height="32" fill="none"><path fill="#1A1C1F" fill-rule="evenodd" d="M6.274 5.098c-.797.193-1.572.809-1.924 1.53C4 7.345 4 7.343 4 10.486v2.837l-.227.135c-.521.309-1.025.945-1.241 1.566-.26.746-.266.679.503 5.296.384 2.303.725 4.295.759 4.427.033.132.133.396.222.586.202.437.829 1.077 1.291 1.318.687.358-.039.336 10.693.336 10.687 0 9.991.021 10.67-.322a3.13 3.13 0 0 0 1.41-1.533c.101-.254.309-1.383.854-4.656.395-2.377.719-4.41.718-4.519-.001-.332-.144-.898-.319-1.265-.191-.4-.681-.951-1.063-1.196l-.258-.166-.024-.972c-.026-1.055-.089-1.335-.438-1.93-.219-.374-.717-.837-1.138-1.058-.673-.354-.687-.355-4.278-.356l-3.225-.001-1.948-1.943c-1.071-1.069-2.015-1.969-2.098-2-.101-.038-1.48-.055-4.213-.052-3.313.003-4.121.018-4.376.08m9.698 3.806c1.294 1.291 1.986 1.945 2.12 2 .171.072.648.083 3.55.083 3.715 0 3.734.001 4.046.332.262.276.285.362.285 1.051v.643H6.027v-2.642c0-2.523.004-2.651.105-2.848.111-.219.385-.42.66-.485.093-.022 1.764-.043 3.714-.046l3.545-.005zm11.179 6.257c.226.153.409.421.457.672.027.139-.147 1.305-.617 4.14-.36 2.171-.678 4.063-.708 4.205a1.09 1.09 0 0 1-.603.736c-.204.093-.638.097-9.668.098-10.432.001-9.654.027-10.024-.331a1 1 0 0 1-.226-.33c-.123-.382-1.396-8.226-1.374-8.469a.95.95 0 0 1 .464-.73c.188-.109.202-.11 11.153-.111l10.966-.001z"/></svg>

<svg width="32" height="32" viewBox="0 0 32 32" fill="none" xmlns="http://www.w3.org/2000/svg"><path d="M6.274 5.098 C 5.477 5.291,4.702 5.907,4.350 6.628 C 4.000 7.345,4.000 7.343,4.000 10.486 L 4.000 13.323 3.773 13.458 C 3.252 13.767,2.748 14.403,2.532 15.024 C 2.272 15.770,2.266 15.703,3.035 20.320 C 3.419 22.623,3.760 24.615,3.794 24.747 C 3.827 24.879,3.927 25.143,4.016 25.333 C 4.218 25.770,4.845 26.410,5.307 26.651 C 5.994 27.009,5.268 26.987,16.000 26.987 C 26.687 26.987,25.991 27.008,26.670 26.665 C 27.273 26.361,27.829 25.756,28.080 25.132 C 28.181 24.878,28.389 23.749,28.934 20.476 C 29.329 18.099,29.653 16.066,29.652 15.957 C 29.651 15.625,29.508 15.059,29.333 14.692 C 29.142 14.292,28.652 13.741,28.270 13.496 L 28.012 13.330 27.988 12.358 C 27.962 11.303,27.899 11.023,27.550 10.428 C 27.331 10.054,26.833 9.591,26.412 9.370 C 25.739 9.016,25.725 9.015,22.134 9.014 L 18.909 9.013 16.961 7.070 C 15.890 6.001,14.946 5.101,14.863 5.070 C 14.762 5.032,13.383 5.015,10.650 5.018 C 7.337 5.021,6.529 5.036,6.274 5.098 M15.972 8.904 C 17.266 10.195,17.958 10.849,18.092 10.904 C 18.263 10.976,18.740 10.987,21.642 10.987 C 25.357 10.987,25.376 10.988,25.688 11.319 C 25.950 11.595,25.973 11.681,25.973 12.370 L 25.973 13.013 16.000 13.013 L 6.027 13.013 6.027 10.371 C 6.027 7.848,6.031 7.720,6.132 7.523 C 6.243 7.304,6.517 7.103,6.792 7.038 C 6.885 7.016,8.556 6.995,10.506 6.992 L 14.051 6.987 15.972 8.904 M27.151 15.161 C 27.377 15.314,27.560 15.582,27.608 15.833 C 27.635 15.972,27.461 17.138,26.991 19.973 C 26.631 22.144,26.313 24.036,26.283 24.178 C 26.218 24.487,25.981 24.777,25.680 24.914 C 25.476 25.007,25.042 25.011,16.012 25.012 C 5.580 25.013,6.358 25.039,5.988 24.681 C 5.893 24.589,5.792 24.441,5.762 24.351 C 5.639 23.969,4.366 16.125,4.388 15.882 C 4.415 15.580,4.591 15.303,4.852 15.152 C 5.040 15.043,5.054 15.042,16.005 15.041 L 26.971 15.040 27.151 15.161 " fill="#1A1C1F" stroke="none" fill-rule="evenodd"></path></svg>
